src/ios-eye-outline.svg

<?xml version="1.0" encoding="utf-8"?>
<!-- Generated by IcoMoon.io -->
<!DOCTYPE svg PUBLIC "-//W3C//DTD SVG 1.1//EN" "http://www.w3.org/Graphics/SVG/1.1/DTD/svg11.dtd">
<svg version="1.1" xmlns="http://www.w3.org/2000/svg" xmlns:xlink="http://www.w3.org/1999/xlink" width="512" height="512" viewBox="0 0 512 512">
<path fill="#000000" d="M447.1 256.2c-45.3-52.2-107.9-112.2-191.1-112.2-33.6 0-64.4 9.5-96.9 29.8-27.4 17.2-55.5 41.4-94.1 81.2l-1 1 6.7 6.9c55.1 56.4 102.7 105.1 185.3 105.1 36.5 0 71.9-11.9 108.2-36.4 30.9-20.9 57.2-47.4 78.3-68.8l5.5-5.5-0.9-1.1zM256 160c33.1 0 64.9 9.5 97.2 30.6 23.9 15.6 47.4 36.7 73.7 66.1-38.3 38.7-95.8 95.3-170.9 95.3-34.2 0-64.2-8.4-94.2-28.2-27.5-18.1-52.3-43.3-76.2-67.8 59.1-59.7 108.4-96 170.4-96z"></path>
<path fill="#000000" d="M256 336c44.1 0 80-35.9 80-80s-35.9-80-80-80c-44.1 0-80 35.9-80 80s35.9 80 80 80zM256 192.3c35.2 0 64 28.6 64 63.7s-28.8 63.7-64 63.7c-35.2 0-63.9-28.6-63.9-63.7s28.7-63.7 63.9-63.7z"></path>
<path fill="#000000" d="M288 256v0c0 17.5-14.4 32-31.8 32s-32.2-15.2-32.2-32.7 15.8-31.3 32-31.3v-16c-26.5 0-47.9 21.6-47.9 48.2s21.5 48.1 47.9 48.1 48-21.6 48-48.1v-0.2h-16z"></path>
</svg>

<?xml version="1.0" encoding="utf-8"?>
<!-- Generator: Adobe Illustrator 16.2.1, SVG Export Plug-In . SVG Version: 6.00 Build 0)  -->
<!DOCTYPE svg PUBLIC "-//W3C//DTD SVG 1.1//EN" "http://www.w3.org/Graphics/SVG/1.1/DTD/svg11.dtd">
<svg version="1.1" id="Layer_1" xmlns="http://www.w3.org/2000/svg" xmlns:xlink="http://www.w3.org/1999/xlink" x="0px" y="0px"
	 width="512px" height="512px" viewBox="0 0 512 512" style="enable-background:new 0 0 512 512;" xml:space="preserve">
<g>
	<g>
		<path d="M447.1,256.2C401.8,204,339.2,144,256,144c-33.6,0-64.4,9.5-96.9,29.8C131.7,191,103.6,215.2,65,255l-1,1l6.7,6.9
			C125.8,319.3,173.4,368,256,368c36.5,0,71.9-11.9,108.2-36.4c30.9-20.9,57.2-47.4,78.3-68.8l5.5-5.5L447.1,256.2z M256,160
			c33.1,0,64.9,9.5,97.2,30.6c23.9,15.6,47.4,36.7,73.7,66.1C388.6,295.4,331.1,352,256,352c-34.2,0-64.2-8.4-94.2-28.2
			c-27.5-18.1-52.3-43.3-76.2-67.8C144.7,196.3,194,160,256,160z"/>
		<path d="M256,336c44.1,0,80-35.9,80-80c0-44.1-35.9-80-80-80c-44.1,0-80,35.9-80,80C176,300.1,211.9,336,256,336z M256,192.3
			c35.2,0,64,28.6,64,63.7c0,35.1-28.8,63.7-64,63.7c-35.2,0-63.9-28.6-63.9-63.7C192.1,220.9,220.8,192.3,256,192.3z"/>
	</g>
	<path d="M288,256L288,256c0,17.5-14.4,32-31.8,32S224,272.8,224,255.3s15.8-31.3,32-31.3l0-16c-26.5,0-47.9,21.6-47.9,48.2
		c0,26.6,21.5,48.1,47.9,48.1s48-21.6,48-48.1V256H288z"/>
</g>
</svg>
